icons/tag-chevron-down.svg

<svg xmlns="http://www.w3.org/2000/svg" width="24" height="24" viewBox="0 0 24 24">
  <path d="M13,2 C13.2652165,2 13.5195704,2.10535684 13.7071068,2.29289322 L13.7071068,2.29289322 L21.2928932,9.87867966 C22.4644661,11.0502525 22.4644661,12.9497475 21.2928932,14.1213203 L21.2928932,14.1213203 L14.1213203,21.2928932 C12.9497475,22.4644661 11.0502525,22.4644661 9.87867966,21.2928932 L9.87867966,21.2928932 L2.29289322,13.7071068 C2.10535684,13.5195704 2,13.2652165 2,13 L2,13 L2,5 C2,3.34314575 3.34314575,2 5,2 L5,2 Z M8.38710056,9.70970461 L8.29289322,9.79289322 C7.93240926,10.1533772 7.90467972,10.7206082 8.20970461,11.1128994 L8.29289322,11.2071068 L11.2928932,14.2071068 C11.6533772,14.5675907 12.2206082,14.5953203 12.6128994,14.2902954 L12.7071068,14.2071068 L15.7071068,11.2071068 C16.0976311,10.8165825 16.0976311,10.1834175 15.7071068,9.79289322 C15.3466228,9.43240926 14.7793918,9.40467972 14.3871006,9.70970461 L14.2928932,9.79289322 L12,12.085 L9.70710678,9.79289322 C9.34662282,9.43240926 8.77939176,9.40467972 8.38710056,9.70970461 Z"/>
</svg>

<svg xmlns="http://www.w3.org/2000/svg" viewBox="0 0 24 24">
  <path d="M13 2a1 1 0 0 1 .7.3l7.6 7.58a3 3 0 0 1 0 4.24l-7.18 7.17a3 3 0 0 1-4.24 0l-7.59-7.58A1 1 0 0 1 2 13V5a3 3 0 0 1 3-3zM8.39 9.71l-.1.08a1 1 0 0 0-.08 1.32l.08.1 3 3a1 1 0 0 0 1.32.08l.1-.08 3-3a1 1 0 0 0-1.32-1.5l-.1.08L12 12.1 9.7 9.8a1 1 0 0 0-1.31-.08z"/>
</svg>
